X: 8877
T: Cup Of Tea, The
R: reel
M: 4/4
K: Edorian
|:BAGF GE E2|GEBE GE E2|BAGF GE E2|FDAD FD D2|
BAGF GE E2|GBEG BE E2|BAGF GABc|dBAG FD D2:|
|:d2 (3efg fdec|dfeg fB B2|d2 (3efg fdec|dBAG FD D2|
d2 (3efg fdec|dfaf g2 fg|af (3gfe fdec|dBAG FD D2:|
|:FA A2 FAdA|FAdA FE E2|FA A2 BABc|dBAG FD D2|
FA A2 FAdA|FAdA FE E2|fdec dBAG|FAEG FD D2:|

